azure-patterns/svg-replica.svg

<svg xmlns="http://www.w3.org/2000/svg" viewBox="0 0 47.069 46.943"><path d="M3.364 16.723v26.856H30.22V16.723H3.364m30.22-3.364V36.87h3.345V10.014H10.073v3.345h23.511M0 13.359h6.709V6.65h33.584v33.584h-6.709v6.709H0z" fill="#0072c6"/><path d="M13.485 0v6.709l3.305 3.305h20.139v20.139l3.431 3.431h6.709V0zM43.7 30.22h-3.34V6.709H16.849V3.364H43.7z" fill="#0072c6"/></svg>

<svg xmlns="http://www.w3.org/2000/svg" viewBox="0 0 47.069 46.943">
                                
                            
  <path d="M3.364,16.723V43.579H30.22V16.723H3.364m30.22-3.364V36.87h3.345V10.014H10.073v3.345H33.584M0,13.359H6.709V6.65H40.293V40.234H33.584v6.709H0Z" fill="#0072c6"></path>
  <path d="M13.485,0V6.709l3.305,3.305H36.929V30.153l3.431,3.431h6.709V0ZM43.7,30.22H40.36V6.709H16.849V3.364H43.7Z" fill="#0072c6"></path>
</svg>
